files/resources/svgs/general/o-video-camera.svg

<svg width="24" height="24" viewBox="0 0 24 24" fill="none" xmlns="http://www.w3.org/2000/svg">
<path d="M15.75 10.5L20.4697 5.78033C20.9421 5.30786 21.75 5.64248 21.75 6.31066V17.6893C21.75 18.3575 20.9421 18.6921 20.4697 18.2197L15.75 13.5M4.5 18.75H13.5C14.7426 18.75 15.75 17.7426 15.75 16.5V7.5C15.75 6.25736 14.7426 5.25 13.5 5.25H4.5C3.25736 5.25 2.25 6.25736 2.25 7.5V16.5C2.25 17.7426 3.25736 18.75 4.5 18.75Z" stroke="#0F172A" stroke-width="1.5" stroke-linecap="round"/>
</svg>

<svg xmlns="http://www.w3.org/2000/svg" fill="none" viewBox="0 0 24 24" stroke-width="1.5" stroke="currentColor" aria-hidden="true">
  <path stroke-linecap="round" d="M15.75 10.5l4.72-4.72a.75.75 0 011.28.53v11.38a.75.75 0 01-1.28.53l-4.72-4.72M4.5 18.75h9a2.25 2.25 0 002.25-2.25v-9a2.25 2.25 0 00-2.25-2.25h-9A2.25 2.25 0 002.25 7.5v9a2.25 2.25 0 002.25 2.25z"/>
</svg>
